packages/tokens/icons/journey/size24Px.svg

<svg viewBox="0 0 24 24" fill="none" xmlns="http://www.w3.org/2000/svg" width="1em" height="1em"><path d="M13.8333 9.66667L14.75 8.75C16.2688 7.23122 18.7312 7.23122 20.25 8.75V8.75C21.7688 10.2688 21.7688 12.7312 20.25 14.25V14.25C18.7312 15.7688 16.2688 15.7688 14.75 14.25L9.25 8.75C7.73122 7.23122 5.26878 7.23122 3.75 8.75V8.75C2.23122 10.2688 2.23122 12.7312 3.75 14.25V14.25C5.26878 15.7688 7.73122 15.7688 9.25 14.25L10.1667 13.3333" stroke="currentColor" stroke-linecap="round"/></svg>

<svg xmlns="http://www.w3.org/2000/svg" fill="none" viewBox="0 0 24 24" width="1em" height="1em"><path stroke="currentColor" stroke-linecap="round" d="m13.833 9.667.917-.917a3.89 3.89 0 0 1 5.5 0v0a3.89 3.89 0 0 1 0 5.5v0a3.89 3.89 0 0 1-5.5 0l-5.5-5.5a3.89 3.89 0 0 0-5.5 0v0a3.89 3.89 0 0 0 0 5.5v0a3.89 3.89 0 0 0 5.5 0l.917-.917"/></svg>
